icons/oracle-light.svg

<svg width="256" height="256" viewBox="0 0 256 256" fill="none" xmlns="http://www.w3.org/2000/svg">
<path d="M196 0H60C26.8629 0 0 26.8629 0 60V196C0 229.137 26.8629 256 60 256H196C229.137 256 256 229.137 256 196V60C256 26.8629 229.137 0 196 0Z" fill="#F4F2ED"/>
<path fill-rule="evenodd" clip-rule="evenodd" d="M87.574 198C49.1673 198 18 166.94 18 128.558C18 90.1715 49.1673 59 87.574 59H168.439C206.855 59 238 90.1715 238 128.558C238 166.94 206.855 198 168.439 198H87.574ZM166.637 173.484C191.52 173.484 211.674 153.406 211.674 128.558C211.674 103.706 191.52 83.5162 166.637 83.5162H89.3625C64.4932 83.5162 44.3261 103.706 44.3261 128.558C44.3261 153.406 64.4932 173.484 89.3625 173.484H166.637Z" fill="#FF0000"/>
</svg>

<svg xmlns="http://www.w3.org/2000/svg" width="256" height="256" fill="none"><path fill="#F4F2ED" d="M196 0H60C26.863 0 0 26.863 0 60v136c0 33.137 26.863 60 60 60h136c33.137 0 60-26.863 60-60V60c0-33.137-26.863-60-60-60"/><path fill="red" fill-rule="evenodd" d="M87.574 198C49.167 198 18 166.94 18 128.558 18 90.172 49.167 59 87.574 59h80.865C206.855 59 238 90.171 238 128.558 238 166.94 206.855 198 168.439 198zm79.063-24.516c24.883 0 45.037-20.078 45.037-44.926 0-24.852-20.154-45.042-45.037-45.042H89.363c-24.87 0-45.037 20.19-45.037 45.042 0 24.848 20.167 44.926 45.037 44.926z" clip-rule="evenodd"/></svg>
